X:28
T:Girl I Left Behind Me,The. TJD.28
M:2/4
L:1/8
Q:1/4=120
S:T.J.Dixon MS1, Lincolnshire, 1798
R:quick step
N:Initial quaver is crotchet in MS
A:Lincolnshire, Holton le Moor
Z:vmp.R.Greig2010
K:G
g|d>cBA|G/A/B/G/ EE|GG G/A/B/c/|d>cBg|dcBA|!
G/A/B/G/ EG|G/F/E/D/ EF|G2G::change to d|Bdef|gdBG|Gg g/f/e/d/|!
e>fge|d>cBA|G/A/B/G/ EG|G/F/E/D/ EF|G2G:|]

